assets/icons/24px/outline/square-24px.svg

<svg width="24" height="24" viewBox="0 0 24 24" fill="none" xmlns="http://www.w3.org/2000/svg">
<path d="M20.4142 20.4142L19.7071 19.7071L20.4142 20.4142ZM3.58579 20.4142L2.87868 21.1213L3.58579 20.4142ZM20.4142 3.58579L21.1213 2.87868L20.4142 3.58579ZM7 4H17V2H7V4ZM4 17V7H2V17H4ZM17 20H7V22H17V20ZM20 7V17H22V7H20ZM17 22C17.9145 22 18.701 22.0021 19.3278 21.9179C19.9833 21.8297 20.6117 21.631 21.1213 21.1213L19.7071 19.7071C19.631 19.7832 19.495 19.8774 19.0613 19.9357C18.5988 19.9979 17.9711 20 17 20V22ZM20 17C20 17.9711 19.9979 18.5988 19.9357 19.0613C19.8774 19.495 19.7832 19.631 19.7071 19.7071L21.1213 21.1213C21.631 20.6117 21.8297 19.9833 21.9179 19.3278C22.0021 18.701 22 17.9145 22 17H20ZM2 17C2 17.9145 1.99788 18.701 2.08214 19.3278C2.17027 19.9833 2.36902 20.6117 2.87868 21.1213L4.29289 19.7071C4.21677 19.631 4.12262 19.495 4.06431 19.0613C4.00212 18.5988 4 17.9711 4 17H2ZM7 20C6.02892 20 5.40121 19.9979 4.9387 19.9357C4.50496 19.8774 4.36902 19.7832 4.29289 19.7071L2.87868 21.1213C3.38834 21.631 4.01669 21.8297 4.67221 21.9179C5.29896 22.0021 6.08546 22 7 22V20ZM17 4C17.9711 4 18.5988 4.00212 19.0613 4.06431C19.495 4.12262 19.631 4.21677 19.7071 4.29289L21.1213 2.87868C20.6117 2.36902 19.9833 2.17027 19.3278 2.08214C18.701 1.99788 17.9145 2 17 2V4ZM22 7C22 6.08546 22.0021 5.29896 21.9179 4.67221C21.8297 4.01669 21.631 3.38834 21.1213 2.87868L19.7071 4.29289C19.7832 4.36902 19.8774 4.50496 19.9357 4.9387C19.9979 5.40121 20 6.02892 20 7H22ZM7 2C6.08546 2 5.29896 1.99788 4.67221 2.08214C4.01669 2.17027 3.38834 2.36902 2.87868 2.87868L4.29289 4.29289C4.36902 4.21677 4.50496 4.12262 4.9387 4.06431C5.40121 4.00212 6.02892 4 7 4V2ZM4 7C4 6.02892 4.00212 5.40121 4.06431 4.9387C4.12262 4.50496 4.21677 4.36902 4.29289 4.29289L2.87868 2.87868C2.36902 3.38834 2.17027 4.01669 2.08214 4.67221C1.99788 5.29896 2 6.08546 2 7H4Z" fill="white"/>
</svg>

<svg width="24" height="24" fill="none" xmlns="http://www.w3.org/2000/svg"><path d="M20.414 20.414l-.707-.707.707.707zm-16.828 0l-.707.707.707-.707zM20.414 3.586l.707-.707-.707.707zM7 4h10V2H7v2zM4 17V7H2v10h2zm13 3H7v2h10v-2zm3-13v10h2V7h-2zm-3 15c.915 0 1.701.002 2.328-.082.655-.088 1.284-.287 1.793-.797l-1.414-1.414c-.076.076-.212.17-.646.229-.462.062-1.09.064-2.061.064v2zm3-5c0 .971-.002 1.599-.064 2.061-.059.434-.153.57-.229.646l1.414 1.414c.51-.51.709-1.138.797-1.793C22.002 18.7 22 17.915 22 17h-2zM2 17c0 .915-.002 1.701.082 2.328.088.655.287 1.284.797 1.793l1.414-1.414c-.076-.076-.17-.212-.229-.646C4.002 18.6 4 17.971 4 17H2zm5 3c-.971 0-1.599-.002-2.061-.064-.434-.059-.57-.153-.646-.229l-1.414 1.414c.51.51 1.138.709 1.793.797C5.3 22.002 6.085 22 7 22v-2zM17 4c.971 0 1.599.002 2.061.064.434.059.57.153.646.229l1.414-1.414c-.51-.51-1.138-.709-1.793-.797C18.7 1.998 17.915 2 17 2v2zm5 3c0-.915.002-1.701-.082-2.328-.088-.655-.287-1.284-.797-1.793l-1.414 1.414c.076.076.17.212.229.646C19.998 5.4 20 6.029 20 7h2zM7 2c-.915 0-1.701-.002-2.328.082-.655.088-1.284.287-1.793.797l1.414 1.414c.076-.076.212-.17.646-.229C5.4 4.002 6.029 4 7 4V2zM4 7c0-.971.002-1.599.064-2.061.059-.434.153-.57.229-.646L2.879 2.879c-.51.51-.709 1.138-.797 1.793C1.998 5.3 2 6.085 2 7h2z" fill="#fff"/></svg>
